app/assets/v2/images/chains/paypal.svg

<svg width="26" height="32" viewBox="0 0 26 32" fill="none" xmlns="http://www.w3.org/2000/svg">
<g clip-path="url(#clip0)">
<path d="M7.26597 30.0655L7.78897 26.7435L6.62397 26.7165H1.06097L4.92697 2.20349C4.93897 2.12949 4.97797 2.06049 5.03497 2.01149C5.09197 1.96249 5.16497 1.93549 5.24097 1.93549H14.621C17.735 1.93549 19.884 2.58349 21.006 3.86249C21.532 4.46249 21.867 5.08949 22.029 5.77949C22.199 6.50349 22.202 7.36849 22.036 8.42349L22.024 8.50049V9.17649L22.55 9.47449C22.993 9.70949 23.345 9.97849 23.615 10.2865C24.065 10.7995 24.356 11.4515 24.479 12.2245C24.606 13.0195 24.564 13.9655 24.356 15.0365C24.116 16.2685 23.728 17.3415 23.204 18.2195C22.722 19.0285 22.108 19.6995 21.379 20.2195C20.683 20.7135 19.856 21.0885 18.921 21.3285C18.015 21.5645 16.982 21.6835 15.849 21.6835H15.119C14.597 21.6835 14.09 21.8715 13.692 22.2085C13.293 22.5525 13.029 23.0225 12.948 23.5365L12.893 23.8355L11.969 29.6905L11.927 29.9055C11.916 29.9735 11.897 30.0075 11.869 30.0305C11.844 30.0515 11.808 30.0655 11.773 30.0655H7.26597Z" fill="#253B80"/>
<path d="M23.048 8.57849C23.02 8.75749 22.988 8.94049 22.952 9.12849C21.715 15.4795 17.483 17.6735 12.078 17.6735H9.32599C8.66499 17.6735 8.10799 18.1535 8.00499 18.8055L6.59599 27.7415L6.19699 30.2745C6.12999 30.7025 6.45999 31.0885 6.89199 31.0885H11.773C12.351 31.0885 12.842 30.6685 12.933 30.0985L12.981 29.8505L13.9 24.0185L13.959 23.6985C14.049 23.1265 14.541 22.7065 15.119 22.7065H15.849C20.578 22.7065 24.28 20.7865 25.362 15.2305C25.814 12.9095 25.58 10.9715 24.384 9.60849C24.022 9.19749 23.573 8.85649 23.048 8.57849Z" fill="#179BD7"/>
<path d="M21.754 8.0625C21.565 8.0075 21.37 7.9575 21.17 7.9125C20.969 7.8685 20.763 7.8295 20.551 7.7955C19.809 7.6755 18.996 7.6185 18.125 7.6185H10.773C10.592 7.6185 10.42 7.6595 10.266 7.7335C9.92697 7.8965 9.67497 8.2175 9.61397 8.6105L8.04997 18.5165L8.00497 18.8055C8.10797 18.1535 8.66497 17.6735 9.32597 17.6735H12.078C17.483 17.6735 21.715 15.4785 22.952 9.1285C22.989 8.9405 23.02 8.7575 23.048 8.5785C22.735 8.4125 22.396 8.2705 22.031 8.1495C21.941 8.1195 21.848 8.0905 21.754 8.0625Z" fill="#222D65"/>
<path d="M9.61399 8.6105C9.67499 8.2175 9.92699 7.8965 10.266 7.7345C10.421 7.6605 10.592 7.6195 10.773 7.6195H18.125C18.996 7.6195 19.809 7.6765 20.551 7.7965C20.763 7.8305 20.969 7.8695 21.17 7.9135C21.37 7.9585 21.565 8.0085 21.754 8.0635C21.848 8.0915 21.941 8.1205 22.032 8.1495C22.397 8.2705 22.736 8.4135 23.049 8.5785C23.417 6.2315 23.046 4.6335 21.777 3.1865C20.378 1.5935 17.853 0.911499 14.622 0.911499H5.24199C4.58199 0.911499 4.01899 1.3915 3.91699 2.0445L0.00998882 26.8095C-0.0670112 27.2995 0.310989 27.7415 0.804989 27.7415H6.59599L8.04999 18.5165L9.61399 8.6105Z" fill="#253B80"/>
</g>
<defs>
<clipPath id="clip0">
<rect width="25.5764" height="30.177" fill="white" transform="translate(0 0.911499)"/>
</clipPath>
</defs>
</svg>

<svg xmlns="http://www.w3.org/2000/svg" width="26" height="32" fill="none"><g clip-path="url(#clip0)"><path fill="#253B80" d="M7.266 30.066l.523-3.322-1.165-.027H1.061L4.927 2.203a.316.316 0 01.314-.268h9.38c3.114 0 5.263.648 6.385 1.927.526.6.861 1.227 1.023 1.917.17.724.173 1.59.007 2.644l-.012.077v.676l.526.298a3.69 3.69 0 011.065.813c.45.512.741 1.164.864 1.938.127.795.085 1.74-.123 2.812-.24 1.231-.628 2.304-1.152 3.182a6.547 6.547 0 01-1.825 2c-.696.494-1.523.87-2.458 1.11-.906.235-1.939.354-3.072.354h-.73c-.522 0-1.029.189-1.427.526a2.21 2.21 0 00-.744 1.328l-.055.299-.924 5.855-.042.215c-.011.068-.03.102-.058.125a.155.155 0 01-.096.035H7.266z"/><path fill="#179BD7" d="M23.048 8.578c-.028.18-.06.362-.096.55-1.237 6.351-5.469 8.546-10.874 8.546H9.326c-.661 0-1.218.48-1.321 1.131l-1.409 8.936-.399 2.534a.704.704 0 00.695.814h4.881c.578 0 1.069-.42 1.16-.99l.048-.248.919-5.832.059-.32c.09-.573.582-.993 1.16-.993h.73c4.729 0 8.431-1.92 9.513-7.476.452-2.32.218-4.258-.978-5.622a4.667 4.667 0 00-1.336-1.03z"/><path fill="#222D65" d="M21.754 8.063a9.757 9.757 0 00-1.203-.268 15.284 15.284 0 00-2.426-.176h-7.352a1.172 1.172 0 00-1.159.992L8.05 18.515l-.045.29a1.336 1.336 0 011.321-1.133h2.752c5.405 0 9.637-2.194 10.874-8.544.037-.188.068-.371.096-.55a6.594 6.594 0 00-1.017-.43 9.045 9.045 0 00-.277-.086z"/><path fill="#253B80" d="M9.614 8.61a1.169 1.169 0 011.159-.99h7.352c.871 0 1.684.056 2.426.176a9.757 9.757 0 011.481.353c.365.121.704.264 1.017.43.368-2.348-.003-3.946-1.272-5.393C20.378 1.594 17.853.912 14.622.912h-9.38c-.66 0-1.223.48-1.325 1.134L.01 26.81a.806.806 0 00.795.931h5.791l1.454-9.224L9.614 8.61z"/></g><defs><clipPath id="clip0"><path fill="#fff" d="M0 0h25.576v30.177H0z" transform="translate(0 .911)"/></clipPath></defs></svg>
